static/card-icons/box.svg

<svg viewBox="0 0 511.999 511.999" xmlns="http://www.w3.org/2000/svg"><path d="m446.567 183.652 54.978-54.978c7.681-7.68 6.083-20.543-3.217-26.121l-166.957-100.174c-6.568-3.941-14.978-2.905-20.395 2.511l-54.976 54.977-54.978-54.977c-5.416-5.415-13.825-6.453-20.395-2.511l-166.957 100.174c-9.316 5.589-10.882 18.456-3.216 26.122l54.978 54.977-54.977 54.978c-7.681 7.68-6.084 20.543 3.216 26.122l58.676 35.206v95.173c0 5.865 3.078 11.299 8.106 14.316l166.957 100.173c5.278 3.167 11.882 3.179 17.18 0l166.957-100.174c5.028-3.017 8.105-8.451 8.105-14.316v-95.173l58.676-35.206c9.316-5.589 10.882-18.456 3.216-26.122zm-121.196-145.935 137.442 82.466-42.445 42.445c-5.922-3.553-131.682-79.009-137.442-82.466zm65.134 145.935-134.505 80.703-134.506-80.703 134.506-80.704zm-341.318-63.467 137.442-82.467 42.445 42.445c-5.758 3.455-131.523 78.915-137.442 82.466zm-.001 126.934 42.445-42.444c5.923 3.553 131.682 79.009 137.442 82.466l-42.445 42.445zm357.074 138.558-150.26 90.156-150.372-90.156v-65.685l75 44.934c6.569 3.941 14.978 2.905 20.395-2.511l54.977-54.978 54.978 54.978c5.422 5.422 13.833 6.449 20.395 2.511l74.888-44.934v65.685zm-80.89-56.092-42.445-42.445c5.758-3.455 131.523-78.915 137.442-82.467l42.445 42.445z"/></svg>

<?xml version="1.0" encoding="iso-8859-1"?>
<!-- Generator: Adobe Illustrator 19.0.0, SVG Export Plug-In . SVG Version: 6.00 Build 0)  -->
<svg version="1.1" id="Layer_1" xmlns="http://www.w3.org/2000/svg" xmlns:xlink="http://www.w3.org/1999/xlink" x="0px" y="0px"
	 viewBox="0 0 511.999 511.999" style="enableBackground:new 0 0 511.999 511.999;" xml:space="preserve">
<g>
	<g>
		<path d="M446.567,183.652l54.978-54.978c7.681-7.68,6.083-20.543-3.217-26.121L331.371,2.379
			c-6.568-3.941-14.978-2.905-20.395,2.511L256,59.867L201.022,4.89c-5.416-5.415-13.825-6.453-20.395-2.511L13.67,102.553
			c-9.316,5.589-10.882,18.456-3.216,26.122l54.978,54.977l-54.977,54.978c-7.681,7.68-6.084,20.543,3.216,26.122l58.676,35.206
			v95.173c0,5.865,3.078,11.299,8.106,14.316L247.41,509.62c5.278,3.167,11.882,3.179,17.18,0l166.957-100.174
			c5.028-3.017,8.105-8.451,8.105-14.316v-95.173l58.676-35.206c9.316-5.589,10.882-18.456,3.216-26.122L446.567,183.652z
			 M325.371,37.717l137.442,82.466l-42.445,42.445c-5.922-3.553-131.682-79.009-137.442-82.466L325.371,37.717z M390.505,183.652
			L256,264.355l-134.506-80.703L256,102.948L390.505,183.652z M49.187,120.185l137.442-82.467l42.445,42.445
			c-5.758,3.455-131.523,78.915-137.442,82.466L49.187,120.185z M49.186,247.119l42.445-42.444
			c5.923,3.553,131.682,79.009,137.442,82.466l-42.445,42.445L49.186,247.119z M406.26,385.677L256,475.833l-150.372-90.156v-65.685
			l75,44.934c6.569,3.941,14.978,2.905,20.395-2.511L256,307.437l54.978,54.978c5.422,5.422,13.833,6.449,20.395,2.511
			l74.888-44.934V385.677z M325.37,329.585l-42.445-42.445c5.758-3.455,131.523-78.915,137.442-82.467l42.445,42.445L325.37,329.585
			z"/>
	</g>
</g>
<g>
</g>
<g>
</g>
<g>
</g>
<g>
</g>
<g>
</g>
<g>
</g>
<g>
</g>
<g>
</g>
<g>
</g>
<g>
</g>
<g>
</g>
<g>
</g>
<g>
</g>
<g>
</g>
<g>
</g>
</svg>
